!!!!SEGMENT: pl-sa--l-1636--011_anonim--keyboard-piece.krn
!!!cenid: 17xx:718
!!!COM: Anonim
!!!COM-rismid: pe30004985
!!!CDT:
!!!CNT:
!!!OTL: [Keyboard piece]
!!!PDT:
!!!AGN: Secular
!!!SMS-siglum: PL-SA
!!!SMS-shelfmark: L 1636
!!!SMS-shelfwork: 011 W
!!!SMS-variant:
!!!SMS-altvar:
!!!NIFC-rismid: 1001076395
!!!URL-scan: http://repozytorium.nifc.pl/skany/pl-sa-nut--l1636
!!!ONB-nifc: 4r, skan 0007, s. 7
**kern	**kern
*part2	*part1
*staff2	*staff1
*clefC3	*clefC1
*k[]	*k[]
*d:	*d:
*M2/2	*M2/2
*met(c|)	*met(c|)
=1	=1
*all\right	*all\right
*2\right	*2\right
*^	*
2e/	2c#X\	2a\
2f/	2d\	2a\
=2	=2	=2
2g/	2G\	2b-X\
4f/	2G\	4a\
4e/	.	4g/
=3	=3	=3
2.d/	1B-X	4f/
.	.	4e/
.	.	4f/
4e/	.	4g/
=4	=4	=4
1f	2A/	8a\L
.	.	8g\
.	.	8a\
.	.	8b\J
.	2F/	8cc\L
.	.	8b\
.	.	8cc\
.	.	8a\J
=5	=5	=5
4.e/	2c\	8g\L
.	.	8f\
.	.	8g\
8f/	.	8a\J
8g/L	2G\	8b-X\L
8f/	.	8a\
!	!	!LO:TX:a:t=g
8e/	.	8b- 8g\
!	!	!LO:TX:a:t=f
8d/J	.	8g 8f\J
=6	=6	=6
4.c#X/	[2A\	4.e/
16d/LL	.	16f/LL
16e/JJ	.	16g/JJ
!	!	!LO:TX:a:t=P:problem:mixed beam
8f/L	2A\]	8a\L
8c#/	.	8e/
8d/	.	8f/
8A/J	.	8c#X/J
*v	*v	*
=7	=7
*clefF4	*
*	*^
8F\L	2f/	2d\
16G\L	.	.
16A\JJ	.	.
!LO:SIC:v:s=8B-	!	!
8B\L	.	.
8F\J	.	.
!LO:TX:a:t=P:problem:mixed beam	!	!
8G\L	2e/	4d\
8E\	.	.
8A\	.	4c#X\
8AA/J	.	.
*	*v	*v
=8	=8
1D 1DD	1f 1d 1A
==	==
*-	*-
!!!system-decoration: s1,s2
!!!ENC: Marta Lawrence
!!!END: 2020-12-07
!!!ENC: Andrzej Borzym
!!!END:2020-06-11
